styles/2/Numix/32/places/purple-folder-music.svg

<?xml version="1.0" encoding="UTF-8" standalone="no"?>
<svg
   xmlns:dc="http://purl.org/dc/elements/1.1/"
   xmlns:cc="http://creativecommons.org/ns#"
   xmlns:rdf="http://www.w3.org/1999/02/22-rdf-syntax-ns#"
   xmlns:svg="http://www.w3.org/2000/svg"
   xmlns="http://www.w3.org/2000/svg"
   xmlns:sodipodi="http://sodipodi.sourceforge.net/DTD/sodipodi-0.dtd"
   xmlns:inkscape="http://www.inkscape.org/namespaces/inkscape"
   width="32"
   height="32"
   viewBox="0 0 32 32"
   id="svg2"
   version="1.1"
   inkscape:version="0.91 r"
   sodipodi:docname="purple-folder-music.svg">
  <metadata
     id="metadata16">
    <rdf:RDF>
      <cc:Work
         rdf:about="">
        <dc:format>image/svg+xml</dc:format>
        <dc:type
           rdf:resource="http://purl.org/dc/dcmitype/StillImage" />
      </cc:Work>
    </rdf:RDF>
  </metadata>
  <defs
     id="defs14" />
  <sodipodi:namedview
     pagecolor="#ffffff"
     bordercolor="#666666"
     borderopacity="1"
     objecttolerance="10"
     gridtolerance="10"
     guidetolerance="10"
     inkscape:pageopacity="0"
     inkscape:pageshadow="2"
     inkscape:window-width="1280"
     inkscape:window-height="998"
     id="namedview12"
     showgrid="false"
     inkscape:zoom="14.75"
     inkscape:cx="18.36236"
     inkscape:cy="7.2417786"
     inkscape:window-x="0"
     inkscape:window-y="0"
     inkscape:window-maximized="1"
     inkscape:current-layer="svg2" />
  <path
     style="font-size:medium;font-style:normal;font-variant:normal;font-weight:normal;font-stretch:normal;text-indent:0;text-align:start;text-decoration:none;line-height:normal;letter-spacing:normal;word-spacing:normal;text-transform:none;direction:ltr;block-progression:tb;writing-mode:lr-tb;text-anchor:start;baseline-shift:baseline;color:#000000;fill:#7e57c2;fill-opacity:1;fill-rule:nonzero;stroke:none;stroke-width:1;marker:none;visibility:visible;display:inline;overflow:visible;enable-background:accumulate;font-family:Sans;-inkscape-font-specification:Sans"
     d="m 4,3.9999996 c -0.4916,0 -1,0.4731187 -1,1 l 0,1 c -0.6666667,0 -0.8333333,0 -1.5,0 -0.9791617,0 -1.5,0.4940342 -1.5,1.5 L 0,26.5 C 0,27.531461 0.5230687,28 1.5,28 l 28.84375,0 C 31.21572,28 32,27.376781 32,26.5 L 32,9.4999996 c 0,-0.9413229 -0.425107,-1.5 -1.5,-1.5 l -2.5,0 0,-3 c 0,-0.5268813 -0.5084,-1 -1,-1 z"
     id="path3004"
     inkscape:connector-curvature="0"
     sodipodi:nodetypes="ssccssssscccsss" />
  <path
     style="font-size:medium;font-style:normal;font-variant:normal;font-weight:normal;font-stretch:normal;text-indent:0;text-align:start;text-decoration:none;line-height:normal;letter-spacing:normal;word-spacing:normal;text-transform:none;direction:ltr;block-progression:tb;writing-mode:lr-tb;text-anchor:start;baseline-shift:baseline;color:#000000;fill:#000000;fill-opacity:0.32156863;fill-rule:nonzero;stroke:none;stroke-width:1;marker:none;visibility:visible;display:inline;overflow:visible;enable-background:accumulate;font-family:Sans;-inkscape-font-specification:Sans"
     d="m 4,3.9999996 c -0.4916,0 -1,0.4731186 -1,1 l 0,1 c -0.6868035,0 -0.8835353,0 -1.5,0 -0.9791617,0 -1.5,0.4829856 -1.5,1.5 L 0,26.5 C 0,27.503839 0.5009716,28 1.5,28 l 28.84375,0 C 31.21572,28 32,27.376781 32,26.5 L 32,9.5517763 C 32,8.5377936 31.580916,7.9999996 30.5,7.9999996 l -2.5,0 0,-3 c 0,-0.5268814 -0.5084,-1 -1,-1 z m 15,3 0,2 12,0 L 31,27 1,27 1,6.9999996 z"
     id="path3784"
     inkscape:connector-curvature="0"
     sodipodi:nodetypes="ssccssssscccsssccccccc" />
  <path
     style="opacity:1;fill:#000000;fill-opacity:0.32156863000000002;stroke:none"
     d="M 14 12 C 12.892 12 12 12.858085 12 13.9375 L 12 14.0625 C 12 14.163928 12.016059 14.246585 12.03125 14.34375 C 12.022242 14.399013 12 14.44198 12 14.5 L 12 20 C 10.895431 20 10 20.895431 10 22 C 10 23.104569 10.895431 24 12 24 C 13.104569 24 14 23.104569 14 22 L 14 16 L 20 16 L 20 20 C 18.895431 20 18 20.895431 18 22 C 18 23.104569 18.895431 24 20 24 C 21.104569 24 22 23.104569 22 22 L 22 14.0625 L 22 14 C 22 13.978275 22.001351 13.958873 22 13.9375 C 22 12.858085 21.108 12 20 12 L 14 12 z "
     id="path3001" />
</svg>

<svg xmlns="http://www.w3.org/2000/svg" viewBox="0 0 32 32">
 <path d="m 4 4 c -0.492 0 -1 0.473 -1 1 l 0 1 c -0.667 0 -0.833 0 -1.5 0 -0.979 0 -1.5 0.494 -1.5 1.5 l 0 19 c 0 1.031 0.523 1.5 1.5 1.5 l 28.844 0 c 0.872 0 1.656 -0.623 1.656 -1.5 l 0 -17 c 0 -0.941 -0.425 -1.5 -1.5 -1.5 l -2.5 0 0 -3 c 0 -0.527 -0.508 -1 -1 -1 z" style="visibility:visible;fill:#7e57c2;fill-opacity:1;stroke:none;display:inline;color:#000;fill-rule:nonzero"/>
 <path d="m 4 4 c -0.492 0 -1 0.473 -1 1 l 0 1 c -0.687 0 -0.884 0 -1.5 0 -0.979 0 -1.5 0.483 -1.5 1.5 l 0 19 c 0 1 0.501 1.5 1.5 1.5 l 28.844 0 c 0.872 0 1.656 -0.623 1.656 -1.5 l 0 -16.948 c 0 -1.014 -0.419 -1.552 -1.5 -1.552 l -2.5 0 0 -3 c 0 -0.527 -0.508 -1 -1 -1 z m 15 3 0 2 12 0 l 0 18 -30 0 0 -20 z" style="visibility:visible;fill:#000;fill-opacity:0.322;stroke:none;display:inline;color:#000;fill-rule:nonzero"/>
 <path d="m 14 12 c -1.108 0 -2 0.858 -2 1.938 l 0 0.125 c 0 0.101 0.016 0.184 0.031 0.281 c -0.009 0.055 -0.031 0.098 -0.031 0.156 l 0 5.5 c -1.105 0 -2 0.895 -2 2 c 0 1.105 0.895 2 2 2 c 1.105 0 2 -0.895 2 -2 l 0 -6 l 6 0 l 0 4 c -1.105 0 -2 0.895 -2 2 c 0 1.105 0.895 2 2 2 c 1.105 0 2 -0.895 2 -2 l 0 -7.938 l 0 -0.063 c 0 -0.022 0.001 -0.041 0 -0.063 c 0 -1.079 -0.892 -1.938 -2 -1.938 l -6 0 z" style="fill:#000;opacity:1;fill-opacity:0.322;stroke:none"/>
</svg>
